X: 100861
T: Jackie Coleman's #2
S: "First Collection of Traditional Irish Music" (M.Mulvihill)
Z: B.Black
L: 1/8
M: 4/4
R: reel
K: D
A3 B AF (3FEF|DF (3FEF ADFA|dAce d2 fg|afed BG (3GFG|
A3 B AF (3FEF|DF (3FEF ADFA|dAce d2 fg|afeg fddc :|
d2 fd Adfd|=c2 ec gcec|d2 fd Adfa|gbeg fedc|
d2 fd Adfd|=c2 ec Gcec|d2 fd Adfa|gbeg fd d2 :|s
